X: 1
T: Newmarket, The
M: 2/4
L: 1/8
R: polka
K: Amaj
E2 |: A>B cB | AF FE | CE FE | CE FE |
A>B cB | AF FE | CE FE |1 A2 AE :|2 A2 A2 ||
|: ag/a/ ga | ba af | ec cB | AB ce |
ag/a/ ga | ba af | ec cB |1 A2 Ae :|2 Az ||
